X:1
T:J. B. Herbert
T:J. B. H.
T:Down in de Bottom ob de Glass
%%score 1 { ( 2 4 ) | ( 3 5 ) }
L:1/8
M:4/4
K:G
V:1 bass 
V:2 treble nm="Piano" snm="Pno."
V:4 treble 
V:3 bass 
V:5 bass 
V:1
 z2 | z8 | z8 | z8 | z6 |"^With varied rhythm."{/x} G,A, | B,2 B,2 A,2 G,A, | B,2 B,B, A,2 D,D, | %8
w: |||||O de|spark\- lin' wine! yes, it|looks might\- y fine When you|
w: |||||O de|red looks great in de|whis\- key * straight, But it|
w: |||||O de|foam\- y beer, it *|bring good * cheer, An' it|
w: |||||You can|sing an' laugh, as de|wine you * quaff, But you|
 G,2 E,2 G,2 CC | B,6 B,A, | G,2 G,G, F,2 B,,B,, | G,2 G,2 F,2 B,,B,, | E,2 G,2 E,2 A,,2 | %13
w: pour it out in de|glass; But you|jes' wait a while till it|lose dat smile, As de|weeks an' months go|
w: don't look good on de|nose; An' de|mo' dat you wink, an' *|blink, an' drink, De *|redder an' redder it|
w: make you glad an' glad\-|der; Till it|pi\- zen your hide, an' your|whole in\- side, An' bloat|you up like a|
w: look out dar! by an'|by It will|run you down like an *|ole blood houn', An' *|leave you dar to|
 D,6"^After each stanza." D,2 | !>!G,4!>(! !>!F,4!>)! |!<(! !>!E,4 !>!D,4!<)! | D,2 D,E, F,F,F,F, | %17
w: pas'. For|down, down,|down, down,|Down in de bot\- tom ob de|
w: grows. *||||
w: bladder *||||
w: die! *||||
!>(! B,,6 B,,2!>)! | A,,2 D,2"^cres." E,2 D,2 | A,,2 D,2 E,2 D,D, | !>!D2 D,2 !>!D2 D,2 | %21
w: glass, Dere's|snakes an' bugs, an'|dregs and drugs, Dat\- 'll|git you sure, at|
w: ||||
w: ||||
w: ||||
!>(! G,8-!>)! | G,6 z2 | %23
w: las',||
w: ||
w: ||
w: ||
 D,2 F,E,"^rall." D,[Q:1/4=112]"^Moderato"C,[Q:1/4=96]"^Andante"B,,[Q:1/4=72]"^Adagio"A,, | %24
w: Down in de bot\- tom ob de|
w: |
w: |
w: |
[Q:1/4=48]"^Largo" G,,6 z2 | z8 | z8 | z8 | z6 |] %29
w: glass.|||||
w: |||||
w: |||||
w: |||||
V:2
[K:C] (3GBd | !>![Gg]2 [GB]2 [FA]2 (3GBd | !>![Gg]2 [GB]2 [FA]2 (3GBd | %3
 !>![Gg]2 [GB]2 [EGA]2 [CFA]2 | [B,DG]6 | z2 | B2 B2 A2 z2 | B2 B2 A2 z2 | G2 z2 G2 z2 | [GB]6 z2 | %10
 G2 G2 F2 z2 | G2 G2 F2 z2 | G2 z2 [EG]4 | [DF]6 D2 | z2 [DG]2 z2 [DF]2 | z2 E2 z2 D2 | D3 D F4 | %17
 B,6 z2 | [DF]2 z2 [DF]2 z2 | [DF]2 z2 [DF]2 z2 | d2 F2 d2 F2 | z2 [DG]2 z2 [DF]2 | z2 E2 z2 D2 | %23
 [CDDF]2 z2 z2 z2 | z4 z2 (3GBd | !>![Gg]2 [GB]2 [FA]2 (3GBd | !>![Gg]2 [GB]2 [FA]2 (3GBd | %27
 !>![Gg]2 [GB]2 [EGA]2 [CDFA]2 | [B,DG]6 |] %29
V:3
[K:C] z2 | [G,B,D]2 [G,D]2 [D,D]2 z2 | [G,B,D]2 [G,D]2 [D,D]2 z2 | [G,B,D]2 [G,D]2 [C,C]2 z2 | %4
 [G,,G,]6 | z2 | D2 D2 D2 z2 | D2 D2 D2 z2 | B,2 z2 D2 z2 | G,2 D,2 G,2 z2 | B,2 B,2 B,2 z2 | %11
 B,2 B,2 B,2 z2 | B,2 z2 A,4 | D,2 A,,2 D,,2 z2 | G,4 F,4 | E,4 D,4 | D,4 ^C,4 | %17
 B,,2 F,,2 B,,,2 z2 | A,,2 D,2 E,2 D,2 | A,,2 D,2 E,2 D,2 | D,2 A,2 D,2 A,2 | G,4 F,4 | E,4 D,4 | %23
 [D,,D,]2 z2 z4 | z2"^a tempo" (3F,,B,,D, G,2!<(! z2!<)! | [G,B,D]2 [G,D]2 [D,D]2 z2 | %26
 [G,G,B,D]2 [G,D]2 [D,D]2 z2 | [G,B,D]2 [G,D]2 [C,C]2 D,2 | [G,,G,]6 |] %29
V:4
[K:C] x2 | x8 | x8 | x8 | x6 | x2 | G2 G2 F2 z2 | G2 G2 F2 z2 | E2 z2 E2 z2 | D6 z2 | %10
 E2 E2 ^D2 z2 | E2 E2 ^D2 z2 | E2 z2 ^C4 | A,6 C2 | z2 B,2 z2 B,2 | z2 B,2 z2 B,2 | B,4 ^A,4 | %17
 B,6 z2 | B,2 z2 B,2 z2 | B,2 z2 B,2 z2 | [DF]2 [CD]2 [DF]2 [CD]2 | z2 [B,D]2 z2 [B,D]2 | %22
 z2 B,2 z2 B,2 | x8 | x8 | x8 | x8 | x8 | x6 |] %29
V:5
[K:C] x2 | x8 | x8 | x8 | x6 | x2 | G,2 G,2 D,2 z2 | G,2 G,2 D,2 z2 | E,2 z2 C,2 z2 | %9
 G,,2 D,2 G,2 z2 | E,2 E,2 B,,2 z2 | E,2 E,2 B,,2 z2 | E,2 z2 A,,4 | D,2 A,,2 D,,2 z2 | G,,4 G,,4 | %15
 G,,4 G,,4 | F,,4 F,,4 | B,,2 F,,2 B,,,2 z2 | x8 | x8 | D,,2 D,2 D,,2 D,2 | !>!G,,4 !>!G,,4 | %22
 !>!G,,4 !>!G,,4 | x8 | x8 | x8 | x8 | x8 | x6 |] %29

